Lila_HD/emblems/scalable/emblem-favorite.svg

<?xml version="1.0" encoding="UTF-8" standalone="no"?>
<svg
   xmlns:dc="http://purl.org/dc/elements/1.1/"
   xmlns:cc="http://creativecommons.org/ns#"
   xmlns:rdf="http://www.w3.org/1999/02/22-rdf-syntax-ns#"
   xmlns:svg="http://www.w3.org/2000/svg"
   xmlns="http://www.w3.org/2000/svg"
   xmlns:xlink="http://www.w3.org/1999/xlink"
   xmlns:sodipodi="http://sodipodi.sourceforge.net/DTD/sodipodi-0.dtd"
   xmlns:inkscape="http://www.inkscape.org/namespaces/inkscape"
   height="32"
   width="32"
   inkscape:version="1.0beta2 (2b71d25d45, 2019-12-03)"
   sodipodi:docname="emblem-favorite.svg"
   id="svg6"
   version="1.1"
   viewBox="0 0 32 32">
  <metadata
     id="metadata10">
    <rdf:RDF>
      <cc:Work
         rdf:about="">
        <dc:format>image/svg+xml</dc:format>
        <dc:type
           rdf:resource="http://purl.org/dc/dcmitype/StillImage" />
        <dc:title></dc:title>
      </cc:Work>
    </rdf:RDF>
  </metadata>
  <sodipodi:namedview
     inkscape:document-rotation="0"
     inkscape:current-layer="g2574"
     inkscape:window-maximized="1"
     inkscape:window-y="21"
     inkscape:window-x="0"
     inkscape:cy="46.829937"
     inkscape:cx="-24.5651"
     inkscape:zoom="4.650913"
     showgrid="false"
     id="namedview8"
     inkscape:window-height="1029"
     inkscape:window-width="1920"
     inkscape:pageshadow="2"
     inkscape:pageopacity="0"
     guidetolerance="10"
     gridtolerance="10"
     objecttolerance="10"
     borderopacity="1"
     bordercolor="#666666"
     pagecolor="#ffffff" />
  <defs
     id="defs3051">
    <style
       id="current-color-scheme"
       type="text/css">
      .ColorScheme-Text {
        color:#4d4d4d;
      }
      </style>
    <linearGradient
       y2="47.000011"
       x2="90"
       y1="47.000011"
       x1="6"
       gradientTransform="matrix(1.1013763,0,0,1.1013761,-4.9671169,-3.0996675)"
       gradientUnits="userSpaceOnUse"
       id="linearGradient4071"
       xlink:href="#linearGradient6139-0"
       inkscape:collect="always" />
    <linearGradient
       id="linearGradient6139-0">
      <stop
         style="stop-color:#b2b7bc;stop-opacity:1"
         offset="0"
         id="stop6141-2" />
      <stop
         id="stop6151-0"
         offset="0.25"
         style="stop-color:#ffffff;stop-opacity:1;" />
      <stop
         id="stop6147-1"
         offset="0.5"
         style="stop-color:#969fa4;stop-opacity:1" />
      <stop
         style="stop-color:#f9fafb;stop-opacity:1"
         offset="0.75"
         id="stop6149-4" />
      <stop
         style="stop-color:#b2b8bc;stop-opacity:1"
         offset="1"
         id="stop6143-4" />
    </linearGradient>
    <linearGradient
       gradientUnits="userSpaceOnUse"
       y2="88.171875"
       x2="94.5"
       y1="88.171875"
       x1="1.5"
       id="linearGradient4129"
       xlink:href="#linearGradient3832-0-6-1-1"
       inkscape:collect="always"
       gradientTransform="matrix(0.99479166,0,0,0.99479167,0.1489535,0.915026)" />
    <linearGradient
       id="linearGradient3832-0-6-1-1">
      <stop
         id="stop3834-6-3-7-1"
         offset="0"
         style="stop-color:#000000;stop-opacity:1;" />
      <stop
         style="stop-color:#000000;stop-opacity:0.58823532;"
         offset="0.1"
         id="stop3872-2-4" />
      <stop
         id="stop3844-6-2-7-6"
         offset="0.89999998"
         style="stop-color:#000000;stop-opacity:0.58823532;" />
      <stop
         id="stop3836-5-0-2-9"
         offset="1"
         style="stop-color:#000000;stop-opacity:1;" />
    </linearGradient>
    <radialGradient
       r="43.199203"
       fy="44.892841"
       fx="13.948145"
       cy="44.892841"
       cx="13.948145"
       gradientTransform="matrix(0.97005495,0,0,0.04893452,33.871093,80.664187)"
       gradientUnits="userSpaceOnUse"
       id="radialGradient7462"
       xlink:href="#linearGradient3737"
       inkscape:collect="always" />
    <linearGradient
       id="linearGradient3737">
      <stop
         id="stop3739"
         style="stop-color:#ffffff;stop-opacity:1"
         offset="0" />
      <stop
         id="stop3741"
         style="stop-color:#ffffff;stop-opacity:0"
         offset="1" />
    </linearGradient>
    <radialGradient
       r="43.199203"
       fy="44.892841"
       fx="13.948145"
       cy="44.892841"
       cx="13.948145"
       gradientTransform="matrix(0.88369993,0,0,0.04893452,32.295223,-89.847632)"
       gradientUnits="userSpaceOnUse"
       id="radialGradient7464"
       xlink:href="#linearGradient3737"
       inkscape:collect="always" />
    <linearGradient
       y2="14.514202"
       x2="50.527882"
       y1="-28.64156"
       x1="2.7713892"
       gradientUnits="userSpaceOnUse"
       id="linearGradient4767"
       xlink:href="#linearGradient3737"
       inkscape:collect="always" />
    <clipPath
       clipPathUnits="userSpaceOnUse"
       id="clipPath4156-4-1">
      <path
         style="opacity:0.6;fill:#ffffff;fill-opacity:1;stroke:none"
         d="m 27.046336,-55.695463 -14.21366,13.321486 h 0.06127 l 15.653407,21.770763 10.231384,-10.546177 C 38.561832,-32.30156 27.468089,-54.819245 27.046336,-55.695463 Z M 9.6468554,-39.382809 -5.2407289,-25.32124 15.987863,-7.8059573 26.372412,-18.382966 Z m 31.4906096,12.951445 -9.741259,9.713584 8.944804,12.4580526 7.780753,-7.5550056 z m -49.8397109,4.378822 -13.7541661,12.9822847 26.2830181,13.84571 0.06127,-0.0617 -0.122531,-0.0617 L 13.598503,-5.4007374 -8.7022409,-22.052595 Z m 38.0154159,7.400825 -9.802525,9.7752596 11.579232,9.5594001 7.62759,-7.40083 -8.669108,-11.0087257 z m 20.187073,5.6739697 -7.382526,7.2158 6.187844,8.54179 5.820249,-6.13651996 z m -32.195166,6.32154 -9.5574606,9.49772 13.6622686,7.1849703 7.933918,-7.6783603 z m 23.311629,2.37443004 -7.10683,6.93826996 8.362778,6.9074403 5.360756,-5.6739699 -0.06127,-0.0925 -0.0919,0.12335 -6.463539,-8.20258036 z m -8.730374,8.54178036 -7.505057,7.3391599 10.353916,5.45811 c 1.397496,-1.32103 5.67514,-6.12292 5.850882,-6.32154 z"
         id="path4158-0-8"
         inkscape:connector-curvature="0" />
    </clipPath>
  </defs>
  <g
     inkscape:label="Livello 1"
     id="layer1"
     transform="translate(0,-1026.5197)">
    <g
       transform="translate(-0.14895645,1026.1047)"
       style="display:inline"
       id="g2574">
      <g
         transform="matrix(0.32460733,0,0,0.32460733,0.60060425,0.61797585)"
         id="g859">
        <path
           style="display:inline;opacity:0.15;fill:#000000;fill-opacity:1;fill-rule:nonzero;stroke:none;stroke-width:0.994792"
           d="M 88.827524,0.915026 H 6.9703767 c -3.7790622,0 -6.8214208,3.0423565 -6.8214208,6.8214254 V 89.593599 c 0,3.779072 3.0423586,6.821427 6.8214208,6.821427 H 88.827524 c 3.779072,0 6.821432,-3.042355 6.821432,-6.821427 V 7.7364514 c 0,-3.7790689 -3.04236,-6.8214254 -6.821432,-6.8214254 z"
           id="path3288"
           inkscape:connector-curvature="0" />
        <path
           inkscape:connector-curvature="0"
           id="path4085"
           d="M 88.188014,1.6611198 H 7.6098845 c -3.7200154,0 -6.71483666,2.9948192 -6.71483666,6.7148406 V 88.954088 c 0,3.720024 2.99482126,6.714843 6.71483666,6.714843 H 88.188014 c 3.720027,0 6.714847,-2.994819 6.714847,-6.714843 V 8.3759604 c 0,-3.7200214 -2.99482,-6.7148406 -6.714847,-6.7148406 z"
           style="display:inline;opacity:0.15;fill:#000000;fill-opacity:1;fill-rule:nonzero;stroke:none;stroke-width:0.994792" />
        <path
           style="display:inline;fill:url(#linearGradient4071);fill-opacity:1;fill-rule:nonzero;stroke:none;stroke-width:0.994792"
           d="M 87.548502,2.4072135 H 8.2494005 c -3.6609759,0 -6.6082585,2.947282 -6.6082585,6.6082569 V 88.314581 c 0,3.660977 2.9472826,6.608258 6.6082585,6.608258 H 87.548502 c 3.660978,0 6.608255,-2.947281 6.608255,-6.608258 V 9.0154704 c 0,-3.6609749 -2.947277,-6.6082569 -6.608255,-6.6082569 z"
           id="rect4251-1"
           inkscape:connector-curvature="0" />
        <path
           style="display:inline;opacity:1;fill:#eff1f2;fill-opacity:1;fill-rule:nonzero;stroke:none;stroke-width:1.02414"
           d="m 11.331697,7.2689017 c -2.8416175,0 -5.0974388,2.2764597 -5.0974388,5.1440693 v 21.31574 7.201698 39.705789 c 1.0915252,1.675714 2.9533858,2.797087 5.0974388,2.797087 h 4.077953 65.247239 4.077951 c 2.144056,0 4.005919,-1.121373 5.097444,-2.797087 V 40.930409 33.728711 12.412971 c 0,-2.8676096 -2.255822,-5.1440693 -5.097444,-5.1440693 z"
           id="path3400-6"
           inkscape:connector-curvature="0"
           sodipodi:nodetypes="sscccsccscccsss" />
        <path
           inkscape:connector-curvature="0"
           id="path4989"
           d="m 9.9228615,5.6198544 c -3.1003885,0 -5.638444,2.5262835 -5.638444,5.6165966 v 68.917176 c 0,3.090315 2.5380555,5.616594 5.638444,5.616594 H 86.314688 c 3.100391,0 5.638448,-2.526279 5.638448,-5.616594 V 11.236451 c 0,-3.0903121 -2.538057,-5.6165966 -5.638448,-5.6165966 z m 0,2.3073585 H 86.314688 c 1.878264,0 3.334562,1.472386 3.334562,3.3092381 v 68.917176 c 0,1.836854 -1.456298,3.309234 -3.334562,3.309234 H 9.9228615 c -1.878265,0 -3.3345634,-1.47238 -3.3345634,-3.309234 V 11.236451 c 0,-1.8368521 1.4562984,-3.3092381 3.3345634,-3.3092381 z"
           style="color:#000000;font-style:normal;font-variant:normal;font-weight:normal;font-stretch:normal;font-size:medium;line-height:normal;font-family:Sans;-inkscape-font-specification:Sans;text-indent:0;text-align:start;text-decoration:none;text-decoration-line:none;letter-spacing:normal;word-spacing:normal;text-transform:none;writing-mode:lr-tb;direction:ltr;baseline-shift:baseline;text-anchor:start;display:inline;overflow:visible;visibility:visible;fill:#212122;fill-opacity:1;stroke:none;stroke-width:2.36313;marker:none;enable-background:accumulate" />
        <path
           inkscape:connector-curvature="0"
           style="display:inline;opacity:0.658182;fill:url(#linearGradient4129);fill-opacity:1;fill-rule:nonzero;stroke:none;stroke-width:0.994792"
           d="m 1.641141,82.332506 v 5.96875 c 0,3.660977 2.960606,6.621583 6.6215815,6.621583 H 87.535182 c 3.660978,0 6.621585,-2.960606 6.621585,-6.621583 v -5.96875 c 0,3.660977 -2.960607,6.621583 -6.621585,6.621583 H 8.2627225 c -3.6609755,0 -6.6215815,-2.960606 -6.6215815,-6.621583 z"
           id="path4118" />
        <rect
           style="opacity:0.55;fill:url(#radialGradient7462);fill-opacity:1;stroke:none;stroke-width:0.994792"
           id="rect4131"
           width="83.811203"
           height="4.2278652"
           x="5.4959588"
           y="80.747047"
           rx="0"
           ry="4.2278652" />
        <rect
           ry="4.2278652"
           rx="0"
           y="-89.764755"
           x="6.4460635"
           height="4.2278652"
           width="76.350258"
           id="rect4141"
           style="opacity:0.669;fill:url(#radialGradient7464);fill-opacity:1;stroke:none;stroke-width:0.994792"
           transform="rotate(90)" />
        <g
           id="g908"
           transform="matrix(0.99479164,0,0,0.99479165,3.2016904,19.186663)">
          <path
             style="color:#4d4d4d;opacity:0.358;fill:none;fill-opacity:1;stroke:#221b02;stroke-width:3.98;stroke-opacity:0.405316"
             d="M 44.931282,-5.2073594 35.074554,15.749848 13.091252,19.107976 29.011268,35.432213 25.24892,58.472704 44.931282,47.589879 64.613643,58.472704 60.851299,35.432213 76.771314,19.107976 54.788009,15.749848 Z"
             class="ColorScheme-Text"
             id="path904"
             inkscape:connector-curvature="0" />
          <path
             inkscape:connector-curvature="0"
             id="path4"
             class="ColorScheme-Text"
             d="M 44.931282,-5.2073594 35.074554,15.749848 13.091252,19.107976 29.011268,35.432213 25.24892,58.472704 44.931282,47.589879 64.613643,58.472704 60.851299,35.432213 76.771314,19.107976 54.788009,15.749848 Z"
             style="color:#4d4d4d;fill:#f1c40f;fill-opacity:1;stroke:none;stroke-width:3.98" />
        </g>
        <rect
           transform="matrix(1.0636761,0,0,1.0422264,4.4218092,39.193603)"
           style="opacity:0.507812;fill:url(#linearGradient4767);fill-opacity:1;stroke:none"
           id="rect4146"
           width="75.965775"
           height="69.024437"
           x="2"
           y="-30"
           rx="3.9569874"
           ry="3.9569881"
           clip-path="url(#clipPath4156-4-1)" />
      </g>
    </g>
  </g>
</svg>

<?xml version="1.0" encoding="UTF-8"?>
<svg version="1.1" viewBox="0 0 32 32" xmlns="http://www.w3.org/2000/svg" xmlns:cc="http://creativecommons.org/ns#" xmlns:dc="http://purl.org/dc/elements/1.1/" xmlns:rdf="http://www.w3.org/1999/02/22-rdf-syntax-ns#" xmlns:xlink="http://www.w3.org/1999/xlink">
<metadata>
<rdf:RDF>
<cc:Work rdf:about="">
<dc:format>image/svg+xml</dc:format>
<dc:type rdf:resource="http://purl.org/dc/dcmitype/StillImage"/>
<dc:title/>
</cc:Work>
</rdf:RDF>
</metadata>
<defs>
<style type="text/css">.ColorScheme-Text {
        color:#4d4d4d;
      }</style>
<linearGradient id="linearGradient4071" x1="6" x2="90" y1="47" y2="47" gradientTransform="matrix(1.1014 0 0 1.1014 -4.9671 -3.0997)" gradientUnits="userSpaceOnUse">
<stop stop-color="#b2b7bc" offset="0"/>
<stop stop-color="#fff" offset=".25"/>
<stop stop-color="#969fa4" offset=".5"/>
<stop stop-color="#f9fafb" offset=".75"/>
<stop stop-color="#b2b8bc" offset="1"/>
</linearGradient>
<linearGradient id="linearGradient4129" x1="1.5" x2="94.5" y1="88.172" y2="88.172" gradientTransform="matrix(.99479 0 0 .99479 .14895 .91503)" gradientUnits="userSpaceOnUse">
<stop offset="0"/>
<stop stop-opacity=".58824" offset=".1"/>
<stop stop-opacity=".58824" offset=".9"/>
<stop offset="1"/>
</linearGradient>
<radialGradient id="radialGradient7462" cx="13.948" cy="44.893" r="43.199" gradientTransform="matrix(.97005 0 0 .048935 33.871 80.664)" gradientUnits="userSpaceOnUse" xlink:href="#linearGradient3737"/>
<linearGradient id="linearGradient3737">
<stop stop-color="#fff" offset="0"/>
<stop stop-color="#fff" stop-opacity="0" offset="1"/>
</linearGradient>
<radialGradient id="radialGradient7464" cx="13.948" cy="44.893" r="43.199" gradientTransform="matrix(.8837 0 0 .048935 32.295 -89.848)" gradientUnits="userSpaceOnUse" xlink:href="#linearGradient3737"/>
<linearGradient id="linearGradient4767" x1="2.7714" x2="50.528" y1="-28.642" y2="14.514" gradientUnits="userSpaceOnUse" xlink:href="#linearGradient3737"/>
<clipPath id="clipPath4156-4-1">
<path d="m27.046-55.695-14.214 13.321h0.06127l15.653 21.771 10.231-10.546c-0.2169-1.1522-11.311-23.67-11.732-24.546zm-17.399 16.313-14.888 14.062 21.229 17.515 10.385-10.577zm31.491 12.951-9.7413 9.7136 8.9448 12.458 7.7808-7.555zm-49.84 4.3788-13.754 12.982 26.283 13.846 0.06127-0.0617-0.12253-0.0617 9.8332-10.053-22.301-16.652zm38.015 7.4008-9.8025 9.7753 11.579 9.5594 7.6276-7.4008-8.6691-11.009zm20.187 5.674-7.3825 7.2158 6.1878 8.5418 5.8202-6.1365zm-32.195 6.3215-9.5575 9.4977 13.662 7.185 7.9339-7.6784zm23.312 2.3744-7.1068 6.9383 8.3628 6.9074 5.3608-5.674-0.06127-0.0925-0.0919 0.12335-6.4635-8.2026zm-8.7304 8.5418-7.5051 7.3392 10.354 5.4581c1.3975-1.321 5.6751-6.1229 5.8509-6.3215z" fill="#fff" opacity=".6"/>
</clipPath>
</defs>
<g transform="translate(0 -1026.5)">
<g transform="translate(-.14896 1026.1)">
<g transform="matrix(.32461 0 0 .32461 .6006 .61798)">
<path d="m88.828 0.91503h-81.857c-3.7791 0-6.8214 3.0424-6.8214 6.8214v81.857c0 3.7791 3.0424 6.8214 6.8214 6.8214h81.857c3.7791 0 6.8214-3.0424 6.8214-6.8214v-81.857c0-3.7791-3.0424-6.8214-6.8214-6.8214z" opacity=".15"/>
<path d="m88.188 1.6611h-80.578c-3.72 0-6.7148 2.9948-6.7148 6.7148v80.578c0 3.72 2.9948 6.7148 6.7148 6.7148h80.578c3.72 0 6.7148-2.9948 6.7148-6.7148v-80.578c0-3.72-2.9948-6.7148-6.7148-6.7148z" opacity=".15"/>
<path d="m87.549 2.4072h-79.299c-3.661 0-6.6083 2.9473-6.6083 6.6083v79.299c0 3.661 2.9473 6.6083 6.6083 6.6083h79.299c3.661 0 6.6083-2.9473 6.6083-6.6083v-79.299c0-3.661-2.9473-6.6083-6.6083-6.6083z" fill="url(#linearGradient4071)"/>
<path d="m11.332 7.2689c-2.8416 0-5.0974 2.2765-5.0974 5.1441v68.223c1.0915 1.6757 2.9534 2.7971 5.0974 2.7971h73.403c2.1441 0 4.0059-1.1214 5.0974-2.7971v-68.223c0-2.8676-2.2558-5.1441-5.0974-5.1441z" fill="#eff1f2"/>
<path d="m9.9229 5.6199c-3.1004 0-5.6384 2.5263-5.6384 5.6166v68.917c0 3.0903 2.5381 5.6166 5.6384 5.6166h76.392c3.1004 0 5.6384-2.5263 5.6384-5.6166v-68.917c0-3.0903-2.5381-5.6166-5.6384-5.6166zm0 2.3074h76.392c1.8783 0 3.3346 1.4724 3.3346 3.3092v68.917c0 1.8369-1.4563 3.3092-3.3346 3.3092h-76.392c-1.8783 0-3.3346-1.4724-3.3346-3.3092v-68.917c0-1.8369 1.4563-3.3092 3.3346-3.3092z" color="#000000" fill="#212122" style="text-decoration-line:none;text-indent:0;text-transform:none"/>
<path d="m1.6411 82.333v5.9688c0 3.661 2.9606 6.6216 6.6216 6.6216h79.272c3.661 0 6.6216-2.9606 6.6216-6.6216v-5.9688c0 3.661-2.9606 6.6216-6.6216 6.6216h-79.272c-3.661 0-6.6216-2.9606-6.6216-6.6216z" fill="url(#linearGradient4129)" opacity=".65818"/>
<rect x="5.496" y="80.747" width="83.811" height="4.2279" rx="0" ry="4.2279" fill="url(#radialGradient7462)" opacity=".55"/>
<rect transform="rotate(90)" x="6.4461" y="-89.765" width="76.35" height="4.2279" rx="0" ry="4.2279" fill="url(#radialGradient7464)" opacity=".669"/>
<g transform="matrix(.99479 0 0 .99479 3.2017 19.187)">
<path class="ColorScheme-Text" d="m44.931-5.2074-9.8567 20.957-21.983 3.3581 15.92 16.324-3.7623 23.04 19.682-10.883 19.682 10.883-3.7623-23.04 15.92-16.324-21.983-3.3581z" color="#4d4d4d" fill="none" opacity=".358" stroke="#221b02" stroke-opacity=".40532" stroke-width="3.98"/>
<path class="ColorScheme-Text" d="m44.931-5.2074-9.8567 20.957-21.983 3.3581 15.92 16.324-3.7623 23.04 19.682-10.883 19.682 10.883-3.7623-23.04 15.92-16.324-21.983-3.3581z" color="#4d4d4d" fill="#f1c40f"/>
</g>
<rect transform="matrix(1.0637 0 0 1.0422 4.4218 39.194)" x="2" y="-30" width="75.966" height="69.024" rx="3.957" ry="3.957" clip-path="url(#clipPath4156-4-1)" fill="url(#linearGradient4767)" opacity=".50781"/>
</g>
</g>
</g>
</svg>
